!!!OTL: Schon wieder toent vom Schachte her
!!!OTL-incipit: Schon wieder toent vom Schachte her des Gloeckleins leises Schallen
!!!ARE: Europa, Mitteleuropa, Deutschland, Oberschlesien
!!!SCT: D0238
!!!TXL: @@DE
!!!YEM: Copyright 1995, estate of Helmut Schaffrath.
**kern	**text
*ICvox	*
*M6/8	*
*k[f#c#]	*
*D:	*
{8a	Schon
=1	=1
4a	wie-
8f#	-der
4f#	tönt
8f#	vom
=2	=2
4f#	Schach-
8d	-te
4d	her
8d	des
=3	=3
4g	Glöck-
8b	-leins
(8dd	lei-
8cc#)	.
8b	-ses
=4	=4
4.cc#	Schal-
8a	-len,
8r}	.
{8a	laßt
=5	=5
4a	ei-
8g	-len
4b	uns,
8g	nicht
=6	=6
4g	sor-
8f#	-gen
4a	schwer,
8a	zum
=7	=7
4a	Schach-
8a	-te
(8aL	laßt
8bJ)	.
8cc#	uns
=8	=8
4ee	wal-
4dd	-len.
8r}	.
{8dd	Drum
=9	=9
4ee	Lieb-
8cc#	-chen,
4a	gib
8g	den
=10	=10
4f#	letz-
8a	-ten
8dd	Kuß,
8r}	.
{8dd	laß
=11	=11
4ee	schei-
8cc#	-den
4a	uns
8g	vom
=12	=12
4f#	Hoch-
8a	-ge-
8dd	-nuß,
8r}	.
{8dd	das
=13	=13
4b	ist
8b	des
(8ddL	Schick-
8cc#J)	.
8b	-sals
=14	=14
(4.a	Lauf,
8dd)	.
8r}	.
{8dd	Glück
=15	=15
(4.cc#	auf,
4b)	.
8cc#	Glück
=16	=16
(4dd	auf,
8f#	.
4b)}	.
{8a	Glück
=17	=17
(4.a	auf,
4gg)	.
8cc#	Glück
=18	=18
4.dd	auf!
8dd	.
8r}	.
==	==
!!!AGN: Staende - Lied, Bergmann
!! Inzipit = Transposition zum Lied
!!!ONB: ESAC (Essen Associative Code) Database: DVA
!!!AMT: compound duple
!!!AIN: vox
!!!EED: Helmut Schaffrath
!!!EEV: 1.0
!!!YOR: https://freidok.uni-freiburg.de/data/150373
!!!EFL: A215516
!!!ENC: Anna Maria Matuszewska
!!!EEV: 2025/06/04
*-	*-
